app/images/svg/vk-violet.svg

<svg width="30" height="30" viewBox="0 0 30 30" fill="none" xmlns="http://www.w3.org/2000/svg">
<path d="M12.5685 6.48063C12.0002 6.52164 11.2736 6.63297 10.9865 6.72086C10.4884 6.87321 9.87321 7.42399 9.98454 7.61149C10.008 7.64079 10.1193 7.68766 10.2423 7.7111C10.7814 7.81071 11.2326 8.11539 11.4377 8.51383C11.7834 9.19352 11.9416 11.3263 11.7541 12.8322C11.631 13.8283 11.5783 14.0568 11.3908 14.4201C10.9045 15.3927 9.7736 14.6076 8.53141 12.4279C8.0861 11.6545 6.84391 9.17008 6.56852 8.50797C6.22868 7.70524 6.12321 7.55875 5.74235 7.36539L5.42008 7.20133L2.98844 7.21891C0.791178 7.23649 0.539225 7.24821 0.369303 7.34196C0.0939128 7.48844 -0.0232747 7.69352 0.0177409 7.95719C0.0528971 8.23844 0.972819 10.2892 1.65251 11.6017C2.97673 14.1564 4.10173 16.0138 5.29704 17.6369C7.06071 20.0216 7.84001 20.7951 9.63883 21.9435C10.4767 22.4826 11.0861 22.7814 11.8361 23.0334C12.8673 23.3791 13.3127 23.4435 14.8537 23.4787C16.383 23.5138 16.8224 23.467 17.1506 23.2443C17.4142 23.0627 17.4963 22.8107 17.549 22.0314C17.5959 21.258 17.7482 20.5959 17.9533 20.2443C18.1408 19.9338 18.5334 19.5705 18.7091 19.5646C19.3009 19.5353 19.6349 19.7814 20.8771 21.1759C22.0431 22.4826 22.4709 22.8634 23.1154 23.174C23.4084 23.3088 23.7599 23.4494 23.9064 23.4845C24.258 23.5666 29.0041 23.4728 29.3088 23.3849C29.6134 23.2912 29.9416 22.9689 29.9474 22.758C29.9709 22.1779 29.883 21.9142 29.4787 21.299C28.9396 20.4904 28.4826 19.9748 26.9181 18.4279C25.2541 16.7814 25.1427 16.6291 25.1369 16.0783C25.1369 15.6154 25.3537 15.2638 26.8127 13.3302C28.8693 10.6056 29.6896 9.28727 29.9181 8.36149C30.0529 7.81657 29.9767 7.55289 29.631 7.36539L29.3849 7.23649L26.4259 7.25407C24.3341 7.27164 23.4259 7.29508 23.3205 7.34196C23.1213 7.43571 22.9162 7.78141 22.6525 8.43766C21.9494 10.1896 20.5021 12.715 19.547 13.8517C19.1662 14.3029 18.5744 14.7658 18.381 14.7658C18.1056 14.7658 17.8771 14.59 17.7072 14.2384L17.549 13.9162L17.5666 10.8752C17.5841 7.59977 17.5724 7.50602 17.2736 7.07243C16.9748 6.65055 16.2482 6.50407 14.297 6.47477C13.506 6.46891 12.7326 6.46891 12.5685 6.48063Z" fill="#666981"/>
</svg>

<svg width="30" height="30" viewBox="0 0 30 30" fill="none" xmlns="http://www.w3.org/2000/svg"><path d="M12.569 6.48c-.569.042-1.295.153-1.583.24-.498.153-1.113.704-1.001.891.023.03.134.077.257.1.54.1.99.404 1.196.803.345.68.504 2.812.316 4.318-.123.996-.176 1.225-.363 1.588-.486.973-1.617.188-2.86-1.992-.445-.774-1.687-3.258-1.962-3.92-.34-.803-.446-.95-.827-1.143l-.322-.164-2.432.018C.791 7.236.54 7.249.37 7.342c-.275.146-.392.352-.351.615.035.281.955 2.332 1.635 3.645 1.324 2.554 2.449 4.412 3.644 6.035 1.764 2.385 2.543 3.158 4.342 4.306.838.54 1.447.838 2.197 1.09 1.031.346 1.477.41 3.018.446 1.529.035 1.968-.012 2.297-.235.263-.181.345-.433.398-1.213.047-.773.2-1.435.404-1.787.188-.31.58-.674.756-.68.592-.029.926.217 2.168 1.612 1.166 1.307 1.594 1.687 2.238 1.998.293.135.645.275.791.31.352.083 5.098-.011 5.403-.1.304-.093.633-.415.638-.626.024-.58-.064-.844-.468-1.459-.54-.809-.996-1.324-2.56-2.871-1.665-1.647-1.776-1.799-1.782-2.35 0-.463.217-.814 1.676-2.748 2.056-2.724 2.877-4.043 3.105-4.969.135-.544.059-.808-.287-.996l-.246-.129-2.96.018c-2.09.018-3 .041-3.105.088-.199.094-.404.44-.668 1.096-.703 1.752-2.15 4.277-3.105 5.414-.38.45-.973.914-1.166.914-.275 0-.504-.176-.674-.528l-.158-.322.018-3.04c.017-3.276.005-3.37-.293-3.804-.3-.421-1.026-.568-2.977-.597a46.806 46.806 0 00-1.729.006z" fill="#666981"/></svg>
